X:524
%%etbk:tnset id:254,pos:2,rep:3x,ant:
%%etbk:wsite http://thesession.org/tunes/433
%%etbk:skill ?
%%etbk:pldat 2013-10-07T18:26,2013-10-04T16:17,2013-10-02T17:52,2013-10-01T18:43,2013-09-26T16:16,2013-09-17T09:53,2013-09-11T20:03
T: The Crock Of Gold
Z: Piano Box Version by Martin Fleischmann
H: Created 2013-09-11 /  Last Modified 2013-10-01
R: reel
M: 4/4
L: 1/8
K: Gmaj
|: "G"!5!B3B BAGE | !3!G3A GE!1!DB, | !1!DEG!4!A !3!BAGA | !3!B!5!edB "D"B!2!AA!4!c |
"G"!3!B3c BA!1!G!2!E | !3!GBAG GED2 | !4!g2fg egdB |1 GGGA BAGA :|2GGGA BGG2||
|: "am"!2!e!4!aaa !5!baga | baga bag!2!f| !4!ge!1!d!2!B !1!GAB!4!d | !2!eg!1!d!2!B B!1!AA2 |
!2!e!4!aaa !5!baga | baga bag!2!f| !4!g2fg !2!eg!1!dB | GGGA BGG2 :|
